vibe-coding/src/assets/images/server-solid-full.svg

<?xml version="1.0" encoding="UTF-8"?>
<svg id="Layer_1" xmlns="http://www.w3.org/2000/svg" version="1.1" viewBox="0 0 640 640">
  <!-- Generator: Adobe Illustrator 30.0.0, SVG Export Plug-In . SVG Version: 2.1.1 Build 123)  -->
  <defs>
    <style>
      .st0 {
        stroke-width: 25px;
      }

      .st0, .st1 {
        fill: none;
        stroke: #000;
        stroke-miterlimit: 10;
      }

      .st1 {
        stroke-width: 29px;
      }
    </style>
  </defs>
  <rect class="st1" x="96" y="96" width="448" height="192" rx="64" ry="64"/>
  <path class="st0" d="M376,168c13.3,0,24,10.7,24,24s-10.7,24-24,24-24-10.7-24-24,10.7-24,24-24Z"/>
  <path class="st0" d="M432,192c0-13.3,10.7-24,24-24s24,10.7,24,24-10.7,24-24,24-24-10.7-24-24Z"/>
  <rect class="st1" x="96" y="352" width="448" height="192" rx="64" ry="64"/>
  <path class="st0" d="M376,424c13.3,0,24,10.7,24,24s-10.7,24-24,24-24-10.7-24-24,10.7-24,24-24Z"/>
  <path class="st0" d="M432,448c0-13.3,10.7-24,24-24s24,10.7,24,24-10.7,24-24,24-24-10.7-24-24Z"/>
</svg>

<svg xmlns="http://www.w3.org/2000/svg" viewBox="0 0 640 640"><!--!Font Awesome Free 7.2.0 by @fontawesome - https://fontawesome.com License - https://fontawesome.com/license/free Copyright 2026 Fonticons, Inc.--><path d="M160 96C124.7 96 96 124.7 96 160L96 224C96 259.3 124.7 288 160 288L480 288C515.3 288 544 259.3 544 224L544 160C544 124.7 515.3 96 480 96L160 96zM376 168C389.3 168 400 178.7 400 192C400 205.3 389.3 216 376 216C362.7 216 352 205.3 352 192C352 178.7 362.7 168 376 168zM432 192C432 178.7 442.7 168 456 168C469.3 168 480 178.7 480 192C480 205.3 469.3 216 456 216C442.7 216 432 205.3 432 192zM160 352C124.7 352 96 380.7 96 416L96 480C96 515.3 124.7 544 160 544L480 544C515.3 544 544 515.3 544 480L544 416C544 380.7 515.3 352 480 352L160 352zM376 424C389.3 424 400 434.7 400 448C400 461.3 389.3 472 376 472C362.7 472 352 461.3 352 448C352 434.7 362.7 424 376 424zM432 448C432 434.7 442.7 424 456 424C469.3 424 480 434.7 480 448C480 461.3 469.3 472 456 472C442.7 472 432 461.3 432 448z"/></svg>
